X:280
T:Lucy Campbell
M:C|
L:1/8
Q:120
R:Reel (Key of D)
K:D
"D"AD(3FED D2FA | A2FA "A"BE~E2 |1 "D"A2FA defe |"A"dBAF "D"D3B :|2 "D"DEFA defe | "A"dBAF "D"D3c ||
"D"dBAB defe | "Em"d2cA BE~E2 | "D"dBAB defe | "A"dBAF "D"D3c |
dBAB defe | "Em"dB~B2 gB~B2 | "D"dBAB defe | "A"dBAF "D"D3f ||
"D"~a3f defg | a2fa "G"be(3efe | "D"~a3f defe | "A"dBAF "D"D3f |
~a3f defg | a2fa "G"beef | "G"~g3e "D"~f3e | "A"dBAF "D"D3A |:
"D"df ~f2 dfec | df~f2 "A"afef |1 "D"dffe ~f3e | "A"dBAF "D"D3A :|2
"G"~g3e "D"~f3e | "A"dBAF "D"D3B |]
